X:17
T:Betsy Likens
C:Arr. Alan Jabbour, after Henry Reed
M:4/4
L:1/8
B:Complete Tractor, p.11
Z:abc-transcription Josh Larios <hades@elsewhere.org>, 2014.01.14
%Substituted a mordent in 11 and used voltas instead of writing the B part twice.
K:A mix
|: "A"e2 ef gf gf | ec e^g a2a2 | "A"e2 ef "(G)"gf gf | "E"ed B2 "A"A4 |
"A"ec ef gf gf | ec e^g a2a2 | "A"ec ef "(G)"gf gf | "E"ed B2 "A"A4 ::
"A"A2A=c "G"BA G2 | "A"A2 Ad "G"B2d2 | "A"ed ef "G"!uppermordent!gfe2 |1,3 "E"ed BA "G"G2E2 :|2,4 "E"ed B2 "A"A4 :|

